X:1
T:Title
%%score { ( 1 3 ) | ( 2 4 ) }
L:1/8
M:4/4
K:F
V:1 treble nm="Grand Piano"
V:3 treble 
V:2 bass 
V:4 bass 
V:1
 z4 z2[Q:1/4=100] CF | A2 F2 B2 AA | [FA]2 [EG]4 GA | B2 AB [Gc]2 [EB]2 |[M:3/4] A6 |[M:1/4] CF | %6
[M:4/4] A2 FF B2 A2 | A2 G4 c[Ec] | [Fc]2 [F=B][FB] [FA]2 [FB]2 |[M:3/4] [Ec]6 |[M:1/4] [FA]>[FB] | %11
[M:4/4] [FA]2 [EG]2 C2 G2 | z2 F4 z2 | F2 E2 D2 E2 | z2 D2 C2 A>B | A2 G2 G2 A2 | %16
 z2 [Gc]4[K:bass][K:treble] z2 | c2 =B2 [FA]2 [FB]2 | [Ec]6 C>C | [CEB]2 G2 E2 C2 | A2 F4 A>[FA] | %21
 [FA]2 [FA]2 [F=B]2 [FB]2 | [Ec]6 c>c | f2 c2 e2 [Fd]2 | c2 A2 F2 B2 | A4 [EG]3 F |[M:3/4] F6 |] %27
V:2
 z4 z2 [F,A,][F,A,C] | [F,CF]2 [F,A,C]2 [F,DF]2 [F,CF][F,CF] | %2
 [C,C]2 [C,C]4[K:treble] [B,CE][A,CF] | [G,DF]2 [F,DF][F,DF][K:bass] [E,C]2 [C,C]2 | %4
[M:3/4] [F,CF]6 |[M:1/4] [F,A,][F,A,C] |[M:4/4] [F,CF]2 [F,A,C][F,A,C] [F,DF]2 [F,CF]2 | %7
 [G,CE]2 [G,CE]4 [E,G,E][C,G,] | [G,,G,]2 [G,,G,][G,,G,] [G,,G,]2 [G,,G,]2 |[M:3/4] [C,G,]6 | %10
[M:1/4] [C,C]>[C,C] |[M:4/4] [C,C]2 [C,B,]2 [E,B,]2 [C,B,C]2 | [F,B,C]2 [A,C]4 [C,A,C]2 | %13
 [G,B,C]2 [C,B,C]2 [E,B,]2 [C,B,C]2 | [A,C]2 B,2 A,2 [F,CF]>[F,DF] | %15
 [F,CF]2 [E,C]2 [E,C]2 [^F,C_E]2 | [G,C]2 E4[K:treble] [A,_E^F]2 | %17
 [G,DF]2 [G,DF]2[K:bass] [D,G,]2 [G,,G,]2 | [C,G,]6 C,>C, | C,2 [E,B,C]2 [G,B,C]2 [C,B,]2 | %20
 [F,A,C]2 [F,A,C]4 [F,CF]>[E,C] | [D,D]2 [D,D]2 [G,D]2 [G,,G,]2 | [C,G,]6[K:treble] [CEG]>[B,EG] | %23
 [A,CF]2 [A,CF]2 [B,CF]2[K:bass] [D,B,]2 | [F,A,F]2[K:treble] [A,_EF]2 [B,D]2 [G,^CF]2 | %25
 [CF]4[K:bass] [C,B,]3 [F,A,C] |[M:3/4] [F,A,C]6 |] %27
V:3
 x8 | x8 | x8 | x8 |[M:3/4] x6 |[M:1/4] x2 |[M:4/4] x8 | x8 | x8 |[M:3/4] x6 |[M:1/4] x2 | %11
[M:4/4] x8 | G2 z2 F,2 F2 | x8 | F6 z2 | x8 | [EG]2 z2[K:bass] C,2[K:treble] c2 | x8 | x8 | x8 | %20
 x8 | x8 | x8 | x8 | x8 | x8 |[M:3/4] x6 |] %27
V:4
 x8 | x8 | x6[K:treble] x2 | x4[K:bass] x4 |[M:3/4] x6 |[M:1/4] x2 |[M:4/4] x8 | x8 | x8 | %9
[M:3/4] x6 |[M:1/4] x2 |[M:4/4] x8 | z2 C,2 z4 | x8 | F,6 z2 | x8 | z2 E,2 z4[K:treble] | %17
 x4[K:bass] x4 | x8 | x8 | x8 | x8 | x6[K:treble] x2 | x6[K:bass] x2 | x2[K:treble] x6 | %25
 x4[K:bass] x4 |[M:3/4] x6 |] %27

